wp-content/themes/starter-theme/public/images/icons/plus.svg

<svg xmlns="http://www.w3.org/2000/svg" width="24" height="24"><path fill-rule="evenodd" d="M14 10h10v4H14v10h-4V14H0v-4h10V0h4v10z"/></svg>

<svg xmlns="http://www.w3.org/2000/svg" width="24" height="24" viewBox="0 0 24 24">
  <path fill-rule="evenodd" d="M14,10 L24,10 L24,14 L14,14 L14,24 L10,24 L10,14 L0,14 L0,10 L10,10 L10,0 L14,0 L14,10 Z"/>
</svg>
